src/images/tech/ts.svg

<svg viewBox="0 0 120 120" fill="none" xmlns="http://www.w3.org/2000/svg">
<path d="M7 60.5V113H112V8H7V60.5ZM91.6132 56.3C94.1281 56.8836 96.4138 58.1989 98.182 60.08C99.1554 61.0934 100.002 62.2217 100.702 63.44C100.702 63.5744 96.166 66.6404 93.4024 68.354C93.3016 68.4212 92.8984 67.9844 92.4532 67.3208C91.9487 66.4503 91.2319 65.7218 90.3696 65.2032C89.5074 64.6847 88.5278 64.3931 87.5224 64.3556C84.3388 64.1372 82.2892 65.8088 82.306 68.5556C82.2797 69.2395 82.4363 69.918 82.7596 70.5212C83.4568 71.9744 84.7588 72.8396 88.8412 74.6036C96.3592 77.8376 99.5764 79.9712 101.576 83.0036C103.81 86.3636 104.306 91.79 102.794 95.8052C101.114 100.173 96.9976 103.138 91.1764 104.121C88.5177 104.426 85.8313 104.398 83.1796 104.037C79.1154 103.367 75.3717 101.416 72.4948 98.468C71.5288 97.4012 69.6472 94.6208 69.7648 94.4192C70.0714 94.1916 70.3943 93.9866 70.7308 93.806L74.62 91.6556L77.6356 89.9084L78.2656 90.8408C79.3288 92.3617 80.6819 93.6577 82.2472 94.6544C85.6072 96.4184 90.1936 96.1748 92.4616 94.1336C93.2231 93.3856 93.6981 92.3943 93.804 91.3322C93.9099 90.27 93.64 89.2044 93.0412 88.3208C92.2012 87.1532 90.5212 86.1704 85.8256 84.1208C80.4076 81.7856 78.0724 80.3408 75.9388 78.0392C74.6068 76.5204 73.6234 74.7285 73.0576 72.7892C72.6355 70.5737 72.5731 68.3046 72.8728 66.0692C73.99 60.836 77.9128 57.182 83.6416 56.0984C86.2947 55.7701 88.9821 55.8438 91.6132 56.3168V56.3ZM66.9676 60.7016V65.0024H53.3344V103.836H43.666V64.994H29.9992V60.794C29.9566 59.3456 29.9903 57.896 30.1 56.4512C30.1672 56.3756 38.5 56.3756 48.58 56.3756H66.9172L66.9676 60.7016Z" fill="#007ACC"/>
</svg>

<svg viewBox="0 0 120 120" fill="none" xmlns="http://www.w3.org/2000/svg"><path d="M7 60.5V113h105V8H7v52.5zm84.613-4.2a13.07 13.07 0 0 1 6.569 3.78 17.274 17.274 0 0 1 2.52 3.36c0 .134-4.536 3.2-7.3 4.914-.1.067-.504-.37-.949-1.033a5.956 5.956 0 0 0-4.93-2.965c-3.184-.219-5.234 1.453-5.217 4.2-.026.684.13 1.362.454 1.965.697 1.453 1.999 2.319 6.081 4.083 7.518 3.234 10.735 5.367 12.735 8.4 2.234 3.36 2.73 8.786 1.218 12.801-1.68 4.368-5.796 7.333-11.618 8.316a32.133 32.133 0 0 1-7.996-.084 19.32 19.32 0 0 1-10.685-5.569c-.966-1.067-2.848-3.847-2.73-4.049.306-.227.63-.432.966-.613l3.889-2.15 3.016-1.748.63.933a14.095 14.095 0 0 0 3.981 3.813c3.36 1.764 7.947 1.52 10.215-.52a4.561 4.561 0 0 0 .58-5.813c-.84-1.168-2.52-2.15-7.216-4.2-5.418-2.335-7.754-3.78-9.887-6.082a13.842 13.842 0 0 1-2.881-5.25 20.998 20.998 0 0 1-.185-6.72c1.117-5.233 5.04-8.887 10.769-9.97a26.595 26.595 0 0 1 7.971.218V56.3zm-24.645 4.402v4.3H53.334v38.834h-9.668V64.994H29.999v-4.2a41.317 41.317 0 0 1 .101-4.343c.067-.075 8.4-.075 18.48-.075h18.337l.05 4.326z" fill="#007ACC"/></svg>
